X:216
T:Holy Land, The
R:reel
D:Bothy Band: Out of the Wind, Into the Sun
Z:id:hn-reel-216
M:C|
K:D
~B3d A2Bc|dF~F2 DFAd|BG~G2 ABdf|1 afeg fddA:|2 afeg fdde||
f2df dfaf|gfed cdeg|f2df dfaf|gfeg fdde|
f2df dfaf|gfed cdec|dfaf g2ag|f2eg fddA||

